src/assets/Sello logo.svg

<svg width="79" height="94" viewBox="0 0 79 94" fill="none" xmlns="http://www.w3.org/2000/svg">
<path d="M41.1389 93.9793C62.935 93.2174 79.8705 71.5664 78.9653 45.6204C78.0602 19.6745 59.6572 -0.741258 37.8611 0.0206504C16.065 0.782559 -0.87048 22.4336 0.0346561 48.3796C0.939792 74.3255 19.3428 94.7412 41.1389 93.9793Z" fill="#312E25"/>
<path d="M38.1944 9.574C20.8588 10.18 7.33913 27.4626 8.05904 48.0991C8.77895 68.7355 23.47 85.032 40.8056 84.426C58.1412 83.82 71.6609 66.5374 70.941 45.9009C70.2211 25.2645 55.5324 8.96793 38.1944 9.574ZM40.7974 84.1912C23.5931 84.7926 9.01323 68.5991 8.29787 48.0931C7.58251 27.587 20.9983 10.4126 38.2027 9.81118C55.407 9.20978 69.9869 25.4033 70.7022 45.9093C71.4176 66.4153 58.0017 83.5874 40.7973 84.1888L40.7974 84.1912Z" fill="#F9F5ED"/>
<path d="M69.0516 39.7075C65.9788 22.8173 53.1217 10.306 38.2381 10.8263C21.5733 11.4088 8.58083 28.1102 9.27666 48.0565C9.9725 68.0028 24.0972 83.7563 40.7619 83.1737C57.4267 82.5912 70.4192 65.8898 69.7234 45.9435C69.649 43.8137 69.421 41.732 69.0542 39.7121L69.054 39.7074L69.0516 39.7075ZM38.2456 11.0421C52.9932 10.5266 65.7383 22.9136 68.825 39.6513L68.7118 39.6956C68.4051 39.8132 68.4429 39.8 68.117 39.9824C65.4342 41.1946 61.2557 41.191 57.2134 41.1875C54.6054 41.1861 52.1407 41.182 50.0285 41.4814C48.4167 38.5861 45.4059 37.3853 41.995 38.2121L40.2525 30.1993C40.032 29.2216 40.1644 28.4262 40.6496 27.8084C41.1349 27.1931 41.879 26.8014 42.8866 26.6308L42.8782 26.3912L39.1633 26.5211C38.7908 26.5341 38.4407 26.639 38.1154 26.8379C37.7877 27.037 37.5648 27.2965 37.4423 27.6213L29.7235 49.3388L19.7509 28.2398C19.6052 27.8982 19.3574 27.648 19.0052 27.487C18.6529 27.3259 18.2895 27.2531 17.917 27.2662L14.1233 27.3988C19.2213 17.855 28.0367 11.4013 38.2409 11.0446L38.2456 11.0421ZM33.0795 59.3374C34.1906 60.626 35.9654 61.2075 38.2132 61.0244C41.7171 60.7381 45.404 58.3652 48.0887 54.6738L50.6807 55.2433C49.6842 56.2114 48.6807 57.2533 47.6218 58.3518C43.0105 63.1435 37.7834 68.5765 31.2952 69.1049C27.6101 69.4071 24.8428 67.5115 24.2449 64.2815C23.5909 60.7472 25.7694 56.1117 32.0753 54.1911C31.6382 56.258 31.991 58.0789 33.0796 59.3398L33.0795 59.3374ZM42.1144 38.7565C45.2471 37.9702 47.9354 38.9733 49.4571 41.5489C47.1894 41.9131 45.0536 42.4983 43.0968 43.2767L42.1144 38.7565ZM49.7381 42.0662C51.3852 45.4257 50.6704 50.0147 47.8653 54.0927C45.7065 53.6054 43.5515 53.1606 41.2778 52.9433L43.2394 52.7774L47.3628 52.9134L47.3544 52.6739C46.5283 52.7028 45.9005 52.4516 45.4684 51.9206C45.0363 51.3895 44.7117 50.6481 44.4921 49.6988L43.2105 43.7975C45.1084 43.0402 47.2771 42.4396 49.7381 42.0662ZM41.8969 49.7895C42.0903 50.7421 41.8634 51.5028 41.2163 52.0692C40.8243 52.413 40.2258 52.6619 39.4281 52.8204C38.3775 52.7835 37.3 52.8021 36.1774 52.8936C34.9737 52.9927 33.8637 53.174 32.8736 53.4365C33.7999 50.5926 36.3516 47.2668 40.8743 44.8718L41.8969 49.7895ZM36.2228 53.4429C40.3345 53.1069 43.7797 53.7392 47.5084 54.5516C44.9394 57.9991 41.4619 60.208 38.1678 60.4775C36.075 60.648 34.4452 60.1137 33.4502 58.9326C32.4502 57.7447 32.1792 56.0064 32.6865 54.0344C33.752 53.743 34.9118 53.5505 36.2228 53.4429ZM48.7733 54.2889L48.436 54.2128C51.2014 50.0935 51.9068 45.4407 50.2964 41.966C52.3239 41.7051 54.6691 41.711 57.1482 41.7193C60.2369 41.7277 63.4189 41.7376 66.003 41.1913C62.8384 43.3228 59.333 46.7864 55.9362 50.1441L55.9038 50.1761C54.451 51.6303 53.0214 52.9982 51.5062 54.4451L51.1384 54.7975C50.402 54.6547 49.6454 54.484 48.7733 54.2889ZM59.4748 48.8664C62.0608 46.2494 64.6895 43.6237 66.7067 41.9029C62.3131 46.2192 58.5271 50.8206 55.67 55.3277C54.8852 55.3053 54.051 55.2395 53.0142 55.1214C55.2216 53.0258 57.3298 50.9669 59.4725 48.8688L59.4748 48.8664ZM13.9933 27.6479C14.9938 27.753 16.0211 28.0781 16.6313 28.6457C17.2514 29.2224 17.4604 30.0747 17.2606 31.2001L13.9017 50.6494C13.7019 51.7748 13.3626 52.5988 12.8884 53.1212C12.4234 53.6337 11.1883 53.9286 10.1142 53.9757C9.777 52.0521 9.56697 50.0743 9.4964 48.0512C9.23502 40.5589 10.9141 33.5306 13.9982 27.6501L13.9933 27.6479ZM40.7545 82.9603C25.9639 83.4773 13.19 71.0177 10.151 54.2071L13.928 53.802L18.8895 53.9087L18.8811 53.6692C17.1502 53.7297 15.9763 53.519 15.3617 53.0323C14.7448 52.5481 14.5232 51.7437 14.6967 50.6192L17.9168 30.6168L28.7719 52.9625L37.6196 29.2085L40.7649 44.3389C39.6122 44.9397 38.5411 45.6182 37.5657 46.3695C34.8723 48.4441 32.9848 51.0034 32.2431 53.5892C25.4064 55.5047 23.03 60.4961 23.7161 64.3356C24.3516 67.8896 27.3455 69.9743 31.3428 69.647C38.6176 69.0531 45.3115 62.5668 50.6898 57.3564C51.3234 56.743 51.9385 56.1468 52.5331 55.5822C53.5521 55.739 54.4355 55.8458 55.3251 55.8551C53.205 59.2869 51.6747 62.5652 50.8947 65.3518C49.8514 69.1591 50.1782 72.0851 51.8179 73.5903C52.7564 74.4527 54.0957 74.8144 55.7689 74.6775C57.2087 74.5607 59.1809 73.8791 59.9907 73.5896C54.9269 79.1831 48.213 82.6972 40.7592 82.9577L40.7545 82.9603ZM60.6367 72.8522C60.5977 72.8322 60.5546 72.829 60.5144 72.8423C58.0236 73.732 54.5567 74.188 53.3699 73.1276C51.897 71.8137 51.5491 69.0357 52.4108 65.5053C53.1087 62.6243 54.5627 59.287 56.6156 55.8456C59.0394 55.7086 61.1624 54.9624 63.284 53.4943C63.3494 53.4493 63.3678 53.3608 63.3272 53.2934L63.203 53.0887C63.1802 53.0539 63.1459 53.029 63.1049 53.0185C63.064 53.0105 63.0213 53.0191 62.9862 53.0417C61.0907 54.3451 59.1201 55.0742 56.9658 55.2634C60.0371 50.2525 63.924 45.1845 68.9387 40.3074C69.2465 42.1418 69.4413 44.0252 69.5084 45.9487C69.8749 56.4554 66.4235 66.058 60.6365 72.8475L60.6367 72.8522Z" fill="#F9F5ED"/>
</svg>

<svg xmlns="http://www.w3.org/2000/svg" fill="none" viewBox="0 0 79 94"><path fill="#312e25" d="M41.139 93.98c21.796-.763 38.732-22.414 37.826-48.36S59.657-.74 37.861.02C16.065.784-.87 22.435.035 48.38s19.308 46.361 41.104 45.6"/><path fill="#f9f5ed" d="M38.194 9.574C20.86 10.18 7.34 27.463 8.06 48.099c.72 20.637 15.411 36.933 32.747 36.327S71.66 66.537 70.94 45.901 55.532 8.968 38.194 9.574m2.603 74.617c-17.204.602-31.784-15.592-32.5-36.098-.714-20.506 12.701-37.68 29.906-38.282s31.784 15.592 32.5 36.098c.715 20.506-12.701 37.678-29.906 38.28z"/><path fill="#f9f5ed" d="M69.052 39.708c-3.073-16.89-15.93-29.402-30.814-28.882-16.665.583-29.657 17.284-28.961 37.23.696 19.947 14.82 35.7 31.485 35.118s29.657-17.284 28.961-37.23a43 43 0 0 0-.669-6.232v-.005zM38.246 11.042c14.747-.515 27.492 11.872 30.579 28.61l-.113.044c-.307.117-.27.104-.595.286-2.683 1.213-6.861 1.209-10.904 1.206-2.608-.002-5.072-.006-7.184.293-1.612-2.895-4.623-4.096-8.034-3.269L40.253 30.2q-.332-1.465.397-2.39.726-.923 2.237-1.178l-.009-.24-3.715.13a2.1 2.1 0 0 0-1.048.317q-.49.298-.673.783L29.724 49.34l-9.973-21.1a1.42 1.42 0 0 0-.746-.752 2.4 2.4 0 0 0-1.088-.22l-3.794.132c5.098-9.544 13.914-15.998 24.118-16.354zM33.08 59.337c1.11 1.289 2.885 1.87 5.133 1.687 3.504-.286 7.191-2.659 9.876-6.35l2.592.57c-.997.967-2 2.01-3.06 3.108-4.61 4.792-9.838 10.224-16.326 10.753-3.685.302-6.452-1.594-7.05-4.824-.654-3.534 1.524-8.17 7.83-10.09-.437 2.067-.084 3.888 1.005 5.149zm9.034-20.58c3.133-.787 5.821.216 7.343 2.792-2.268.364-4.403.95-6.36 1.728zm7.624 3.31c1.647 3.359.932 7.948-1.873 12.026-2.159-.488-4.314-.932-6.587-1.15l1.961-.166 4.124.136-.009-.24q-1.238.045-1.886-.752-.647-.798-.976-2.222l-1.281-5.901c1.897-.758 4.066-1.358 6.527-1.732m-7.841 7.722q.29 1.43-.68 2.28-.59.515-1.789.751a28 28 0 0 0-3.25.074c-1.204.099-2.314.28-3.304.543.926-2.844 3.478-6.17 8-8.565zm-5.674 3.654c4.111-.336 7.557.296 11.285 1.109-2.569 3.447-6.046 5.656-9.34 5.926-2.093.17-3.723-.364-4.718-1.545-1-1.188-1.27-2.927-.764-4.899 1.066-.291 2.226-.483 3.537-.591m12.55.846-.337-.076c2.765-4.12 3.47-8.772 1.86-12.247 2.028-.26 4.373-.255 6.852-.247 3.089.009 6.27.019 8.855-.528-3.165 2.132-6.67 5.595-10.067 8.953l-.032.032a257 257 0 0 1-4.398 4.27l-.368.352c-.736-.143-1.493-.314-2.365-.51m10.702-5.423c2.586-2.617 5.214-5.242 7.232-6.963-4.394 4.316-8.18 8.918-11.037 13.425a31 31 0 0 1-2.656-.207 576 576 0 0 0 6.458-6.252zM13.993 27.648c1 .105 2.028.43 2.638.998q.93.865.63 2.554L13.9 50.65q-.3 1.688-1.013 2.471c-.465.513-1.7.808-2.774.855a43 43 0 0 1-.618-5.925c-.261-7.492 1.418-14.52 4.502-20.4zM40.754 82.96c-14.79.517-27.564-11.942-30.603-28.753l3.777-.405 4.962.107-.009-.24q-2.596.092-3.52-.637-.925-.726-.664-2.413l3.22-20.002 10.855 22.345 8.848-23.754 3.145 15.13c-1.153.602-2.224 1.28-3.2 2.032-2.693 2.074-4.58 4.633-5.322 7.22-6.837 1.915-9.213 6.906-8.527 10.746.636 3.554 3.63 5.638 7.627 5.311 7.275-.594 13.969-7.08 19.347-12.29.633-.614 1.249-1.21 1.843-1.775 1.02.157 1.902.264 2.792.273-2.12 3.432-3.65 6.71-4.43 9.497-1.044 3.807-.717 6.733.923 8.238.938.863 2.278 1.224 3.95 1.087 1.44-.116 3.413-.798 4.223-1.087-5.064 5.593-11.778 9.107-19.232 9.368zm19.883-10.108a.16.16 0 0 0-.123-.01c-2.49.89-5.957 1.346-7.144.286-1.473-1.314-1.82-4.092-.96-7.623.699-2.88 2.153-6.218 4.206-9.66 2.423-.136 4.546-.883 6.668-2.35a.15.15 0 0 0 .043-.202l-.124-.204a.17.17 0 0 0-.098-.07.16.16 0 0 0-.119.023c-1.895 1.303-3.866 2.032-6.02 2.221a76.6 76.6 0 0 1 11.973-14.956c.308 1.835.502 3.718.57 5.642.366 10.506-3.085 20.109-8.873 26.899z"/></svg>
